!!!!SEGMENT: pl-cz--ii-15--003_szlagorski-walenty--walc.krn
!!!cenid: 18xx:1153
!!!COM: Szlagórski, Walenty
!!!COM-rismid: pe30111815
!!!CDT: 1801-1863/07/16
!!!CNT: Polish
!!!OTL: Walc 1
!!!PDT:
!!!AGN: Secular; Waltz
!!!SMS-siglum: PL-CZ
!!!SMS-shelfmark: II-15
!!!SMS-shelfwork: 003 W
!!!SMS-variant:
!!!SMS-altvar:
!!!NIFC-rismid: 300001524
!!!URL-scan: http://repozytorium.nifc.pl/skany/pl-cz-nut--ii-15
!!!ONB-nifc: UWAGA: części: 1. Mazur (Morawski), 2. Mazur (Szlagórski), 3. Walc 1, 4. Walc 2, 5. Walc 3, 6. Walc 4, 7. Walc 5, 8. Mazur (Studziński), 9. Kotylion (Szlagórski), 10. Gallop (Szlagórski), 11. Mazur (Smacierzyński). UWAGA: dalsza część partii Basso z tyłu okładki
**kern	**dynam	**kern	**dynam	**kern	**dynam	**kern	**dynam	**kern	**kern	**dynam	**kern	**dynam	**kern	**dynam
*part8	*part8	*part7	*part7	*part6	*part6	*part5	*part5	*part4	*part3	*part3	*part2	*part2	*part1	*part1
*staff8	*	*staff7	*	*staff6	*	*staff5	*	*staff4	*staff3	*	*staff2	*	*staff1	*
*Iempty	*	*Ivioln	*	*Ivioln	*	*Iempty	*	*Icor	*Iempty	*	*Iempty	*	*Iflt	*
*I"Baſso	*	*I"Violino 2do	*	*I"Violino 1mo	*	*I"Clarino in G.	*	*I"Corno 1mo in D.	*I"Clarnetto 2do in C	*	*I"Clarnetto 1mo in C.	*	*I"Flauto Primo	*
*I'b	*	*I'vl 2	*	*I'vl 1	*	*I'clno in G	*	*I'cor 1 in D	*I'cl 2 in C	*	*I'cl 1 in C	*	*I'fl 1	*
*ICstr	*	*ICstr	*	*ICstr	*	*ICbras	*	*ICbras	*ICww	*	*ICww	*	*ICww	*
*clefF4	*	*clefG2	*	*clefG2	*	*clefG2	*	*clefG2	*clefG2	*	*clefG2	*	*clefG2	*
*	*	*	*	*	*	*ITrd-1c-2	*	*ITrd6c10	*	*	*	*	*	*
*k[]	*	*k[f#c#]	*	*k[f#c#]	*	*k[f#c#]	*	*k[f#c#]	*k[f#c#]	*	*k[f#c#]	*	*k[f#c#]	*
*D:	*	*D:	*	*D:	*	*D:	*	*D:	*D:	*	*D:	*	*D:	*
*M3/4	*	*M3/4	*	*M3/4	*	*M3/4	*	*M3/4	*M3/4	*	*M3/4	*	*M3/4	*
*>[A,A,B,B1,B,B2]	*	*	*	*	*	*	*	*	*	*	*	*	*	*
=1	=1	=1	=1	=1	=1	=1	=1	=1	=1	=1	=1	=1	=1	=1
*>A	*	*	*	*	*	*	*	*	*	*	*	*	*	*
!	!	!	!	!	!	!LO:TX:a:t=in D. Sole	!	!	!	!	!	!	!LO:TX:a:t=4	!
!LO:TX:a:t=Szlagowski	!	!LO:TX:a:t=N[ume]ro 1	!	!LO:TX:a:t=N[um]er 1	!	!LO:TX:a:t=N[um]er 1	!	!LO:TX:a:t=N[um]er 1	!LO:TX:a:t=N[um]er 1	!	!LO:TX:a:t=N[um]er 1	!	!LO:TX:a:t=N[um]er 1	!
!LO:TX:a:t=Valze N[um]er 1	!LO:DY:rj	!LO:TX:t=P:problem:partia zapisana bez nagłówka na skanie 008	!LO:DY:rj	!LO:TX:a:t=Walce Szlagowskiego	!LO:DY:rj	!LO:TX:a:t=Walce Szlagowskiego	!LO:DY:rj	!LO:TX:a:rj:t=Walce Szlagowskiego in D.	!LO:TX:a:rj:t=Walce Szlagowskiego	!	!LO:TX:a:t=Walce Szlagowskiego	!	!LO:TX:a:t=Walce Szlagowskiego	!
4D\	f	4a/ 4f#/	ff	4dd\	ff	4d/	f	4d\	4dd\	.	4dd\	.	0.r	.
4d\	.	8a/L 8f#/	.	8a\L	.	8A/L	.	8d\L	8a/L	.	4a\	.	.	.
.	.	8a/J 8f#/	.	8a\J	.	8A/J	.	8d\J	8a/J	.	.	.	.	.
4d\	.	4a/ 4f#/	.	4dd\	.	4d/	.	4d\	4f#/	.	4dd\	.	.	.
=2	=2	=2	=2	=2	=2	=2	=2	=2	=2	=2	=2	=2	=2	=2
*rep	*	*	*	*	*	*	*	*	*	*	*	*	*	*
4D\	.	4a/ 4f#/	.	4ff#\	.	4f#/	.	4d\	4f#/	.	4dd\	.	.	.
4d\	.	8a/L 8f#/	.	4dd\	.	4d/	.	4d\	4a/	.	4ff#\	.	.	.
.	.	8a/J 8f#/	.	.	.	.	.	.	.	.	.	.	.	.
4d\	.	4a/ 4f#/	.	4ff#\	.	4f#/	.	4d\	4f#/	.	4dd\	.	.	.
*Xrep	*	*	*	*	*	*	*	*	*	*	*	*	*	*
=3	=3	=3	=3	=3	=3	=3	=3	=3	=3	=3	=3	=3	=3	=3
*rep	*	*	*	*	*	*	*	*	*	*	*	*	*	*
4D\	.	4a/ 4f#/	.	4aa\	.	4a/	.	4d\	4dd\	.	4ff#\	.	.	.
4d\	.	8a/L 8f#/	.	8dd\L	.	8d/L	.	8f#\L	8dd\L	.	4ff#\	.	.	.
.	.	8a/J 8f#/	.	8ff#\J	.	8f#/J	.	8f#\J	8dd\J	.	.	.	.	.
4d\	.	4a/ 4f#/	.	4aa\	.	4a/	.	4f#\	4dd\	.	4ff#\	.	.	.
*Xrep	*	*	*	*	*	*	*	*	*	*	*	*	*	*
=4	=4	=4	=4	=4	=4	=4	=4	=4	=4	=4	=4	=4	=4	=4
*2\right	*	*	*	*2\right	*	*2\right	*	*2\right	*2\right	*	*2\right	*	*	*
2D\	.	2a/ 2f#/	.	2ddd\	.	2dd\	.	2f#\	2dd\	.	2ff#\	.	.	.
4r	.	4r	.	4r	.	4r	.	4r	4r	.	4r	.	.	.
=5	=5	=5	=5	=5	=5	=5	=5	=5	=5	=5	=5	=5	=5	=5
!	!	!	!	!	!	!	!	!	!	!	!	!	!	!LO:DY:rj
4D\	.	4r	.	(4.fff#\	.	4r	.	4r	4r	.	4r	.	4.fff#\	ff
4r	.	4a/ 4f#/	.	.	.	4dd\	.	4f#\	4dd\	.	4ff#\	.	.	.
.	.	.	.	8ccc#\L)	.	.	.	.	.	.	.	.	8ccc#\L	.
4r	.	4a/ 4f#/	.	8ddd'\	.	4dd\	.	4f#\	4dd\	.	4ff#\	.	8ddd\	.
.	.	.	.	8bb'\J	.	.	.	.	.	.	.	.	8bb\J	.
=6	=6	=6	=6	=6	=6	=6	=6	=6	=6	=6	=6	=6	=6	=6
4D\	.	4r	.	4.bb\	.	4d/	.	4r	4r	.	4r	.	4.bb\	.
4r	.	4a/ 4f#/	.	.	.	8dd\L	.	4f#\	4dd\	.	4ff#\	.	.	.
.	.	.	.	8aa\L	.	8dd\J	.	.	.	.	.	.	8aa\L	.
4r	.	4a/ 4f#/	.	8ff#\	.	4dd\	.	4f#\	4dd\	.	4ff#\	.	8ff#\	.
.	.	.	.	8dd\J	.	.	.	.	.	.	.	.	8dd\J	.
!	!	!LO:LB;g=original	!	!	!	!	!	!	!	!	!	!	!	!
=7	=7	=7	=7	=7	=7	=7	=7	=7	=7	=7	=7	=7	=7	=7
4AA/	.	4r	.	(8cc#\L	.	4A/	.	4r	4r	.	4r	.	8cc#\L	.
.	.	.	.	8ee\J)	.	.	.	.	.	.	.	.	8ee\	.
4A\	.	4a/ 4g/	.	8gg\L	.	8a/L	.	4e\	4ee\	.	4gg\	.	8gg\	.
.	.	.	.	8bb\	.	8a/J	.	.	.	.	.	.	8bb\	.
4A\	.	4a/ 4g/	.	8aa\	.	4a/	.	4e\	4ee\	.	4gg\	.	8aa\	.
.	.	.	.	8cc#\J	.	.	.	.	.	.	.	.	8ccc#\J	.
!LO:LB:g=original	!	!	!	!LO:LB;g=original	!	!LO:LB:g=original	!	!	!	!	!	!	!	!
=8	=8	=8	=8	=8	=8	=8	=8	=8	=8	=8	=8	=8	=8	=8
*	*	*	*	*	*	*	*	*	*	*	*	*	*2\right	*
4d\	.	2a/ 2f#/	.	2dd\	.	4dd\	.	2f#\	2dd\	.	2ff#\	.	2ddd\	.
4D/	.	.	.	.	.	4d/	.	.	.	.	.	.	.	.
4r	.	4r	.	4r	.	4r	.	4r	4r	.	4r	.	4r	.
!	!	!	!	!	!	!	!	!	!LO:LB:g=original	!	!	!	!	!
=9:|!|:	=9:|!|:	=9:|!|:	=9:|!|:	=9:|!|:	=9:|!|:	=9:|!|:	=9:|!|:	=9:|!|:	=9:|!|:	=9:|!|:	=9:|!|:	=9:|!|:	=9:|!|:	=9:|!|:
*>B	*	*	*	*	*	*	*	*	*	*	*	*	*	*
!	!LO:DY:rj	!	!	!	!	!LO:TX:a:t=4	!	!LO:TX:a:t=4	!	!	!	!	!	!
4BB/	p	4r	.	(4.ff#\	.	0.r	.	0.r	4r	p	4r	p	4.fff#\	.
4r	.	4d/ 4B/	.	.	.	.	.	.	4b\	.	4dd\	.	.	.
.	.	.	.	8gg\L)	.	.	.	.	.	.	.	.	8ggg\L	.
4r	.	4d/ 4B/	.	8ff#'\	.	.	.	.	4b\	.	4dd\	.	8fff#\	.
.	.	.	.	8dd'\J	.	.	.	.	.	.	.	.	8ddd\J	.
!	!	!	!	!	!	!	!	!	!	!	!LO:LB;g=original	!	!LO:LB:g=original	!
=10	=10	=10	=10	=10	=10	=10	=10	=10	=10	=10	=10	=10	=10	=10
4BB/	.	4r	.	4.b\	.	.	.	.	4r	.	4r	.	4.bb\	.
4r	.	4d/ 4B/	.	.	.	.	.	.	4d/	.	4b\	.	.	.
.	.	.	.	8dd\L	.	.	.	.	.	.	.	.	8ddd\L	.
4r	.	4d/ 4B/	.	8cc#\	.	.	.	.	4d/	.	4b\	.	8ccc#\	.
.	.	.	.	8b\J	.	.	.	.	.	.	.	.	8bb\J	.
=11	=11	=11	=11	=11	=11	=11	=11	=11	=11	=11	=11	=11	=11	=11
!LO:SIC:s=4F#	!	!	!	!	!	!	!	!	!	!	!	!	!	!
4F\	.	4r	.	(8a#X\L	.	.	.	.	2.f#/	.	2.a#X/	.	8aa#X\L	.
.	.	.	.	8cc#\)	.	.	.	.	.	.	.	.	8ccc#\	.
4r	.	4e/ 4c#/	.	(8ee\	.	.	.	.	.	.	.	.	8eee\	.
.	.	.	.	8gg\	.	.	.	.	.	.	.	.	8ggg\	.
4r	.	4e/ 4c#/	.	8ff#\	.	.	.	.	.	.	.	.	8fff#\	.
.	.	.	.	8ee\J)	.	.	.	.	.	.	.	.	8eee\J	.
=12	=12	=12	=12	=12	=12	=12	=12	=12	=12	=12	=12	=12	=12	=12
4BB/	.	4r	.	(8ee\L	.	.	.	.	2.d/	.	2.b/	.	8eee\L	.
.	.	.	.	8dd\)	.	.	.	.	.	.	.	.	8ddd\	.
4r	.	4d/ 4B/	.	8cc#\	.	.	.	.	.	.	.	.	8ccc#\	.
.	.	.	.	8dd\J	.	.	.	.	.	.	.	.	8ddd\J	.
4r	.	4d/ 4B/	.	4b\	.	.	.	.	.	.	.	.	4bb\	.
=13	=13	=13	=13	=13	=13	=13	=13	=13	=13	=13	=13	=13	=13	=13
4D\	.	4r	.	4.aa\	.	4r	.	4r	2dd\	.	2ff#\	.	4.aa\	.
4d\	.	4a/ 4f#/	.	.	.	4d/	.	4f#\	.	.	.	.	.	.
.	.	.	.	8bb\L	.	.	.	.	.	.	.	.	8bb\L	.
!	!	!	!	!	!	!	!	!	!	!	!	!	!LO:SIC:s=8aa	!
4d\	.	4a/ 4f#/	.	8aa\	.	4d/	.	4f#\	4cc#\	.	4ff#\	.	8gg\	.
.	.	.	.	8ff#\J	.	.	.	.	.	.	.	.	8ff#\J	.
!	!	!	!	!	!	!	!	!LO:LB;g=original	!	!	!	!	!	!
=14	=14	=14	=14	=14	=14	=14	=14	=14	=14	=14	=14	=14	=14	=14
4D\	.	4r	.	4.dd\	.	4r	.	4r	2f#/	.	2dd\	.	4.dd\	.
4d\	.	4a/ 4f#/	.	.	.	4d/	.	4d\	.	.	.	.	.	.
.	.	.	.	8ff#\L	.	.	.	.	.	.	.	.	8ff#\L	.
4d\	.	4a/ 4f#/	.	8ee\	.	4d/	.	4d\	4f#/	.	4dd\	.	8ee\	.
.	.	.	.	8dd\J	.	.	.	.	.	.	.	.	8dd\J	.
!	!	!LO:LB:g=original	!	!LO:LB:g=original	!	!	!	!	!	!	!	!	!	!
=15	=15	=15	=15	=15	=15	=15	=15	=15	=15	=15	=15	=15	=15	=15
4AA/	.	4a/ 4g/	.	8cc#\L	.	4A/	.	4r	2g/	.	2cc#\	.	8cc#\L	.
.	.	.	.	8ee\	.	.	.	.	.	.	.	.	8ee\	.
4A\	.	4a/ 4g/	.	8gg\	.	8a/L	.	4e\	.	.	.	.	8gg\	.
.	.	.	.	8bb\	.	8a/J	.	.	.	.	.	.	8bb\	.
4A\	.	4a/ 4g/	.	8aa\	.	4a/	.	4e\	4g/	.	4cc#\	.	8aa\	.
.	.	.	.	8cc#\J	.	.	.	.	.	.	.	.	8ccc#\J	.
=16	=16	=16	=16	=16	=16	=16	=16	=16	=16	=16	=16	=16	=16	=16
*>B1	*	*	*	*	*	*	*	*	*	*	*	*	*	*
!LO:TX:a:t=1mo	!	!LO:TX:a:t=1mo	!	!LO:TX:t=P:problem:nad taktem łuk (oznaczenie volty?)	!	!LO:TX:a:t=1mo	!	!LO:TX:a:t=1mo	!LO:TX:a:t=1mo	!	!LO:TX:a:t=1mo	!	!LO:TX:a:t=1mo	!
4d\	.	2a/ 2f#/	.	2dd\	.	4dd\	.	2d\	2f#/	.	2dd\	.	2ddd\	.
4D/	.	.	.	.	.	4d/	.	.	.	.	.	.	.	.
4r	.	4r	.	4r	.	4r	.	4r	4r	.	4r	.	4r	.
!	!	!	!	!	!	!	!	!	!	!	!	!	!LO:LB;g=original	!
=17:|!	=17:|!	=17:|!	=17:|!	=17:|!	=17:|!	=17:|!	=17:|!	=17:|!	=17:|!	=17:|!	=17:|!	=17:|!	=17:|!	=17:|!
*>B2	*	*	*	*	*	*	*	*	*	*	*	*	*	*
!LO:TX:a:t=2do	!	!LO:TX:a:t=2do	!	!LO:TX:t=P:problem:nad taktem łuk (oznaczenie volty?)	!	!LO:TX:a:t=2do	!	!LO:TX:a:t=2do	!LO:TX:a:t=2do	!	!LO:TX:a:t=2do	!	!LO:TX:a:t=2do	!
4d\	.	2a/ 2f#/	.	2dd\	.	4dd\	.	2d\	2f#/	.	2dd\	.	2ddd\	.
4D/	.	.	.	.	.	4d/	.	.	.	.	.	.	.	.
==	==	==	==	==	==	==	==	==	==	==	==	==	==	==
*-	*-	*-	*-	*-	*-	*-	*-	*-	*-	*-	*-	*-	*-	*-
!!!system-decoration: [(s1,s2,s3)][(s4,s5)][(s6,s7,s8)]
!!!ENC:Kamil Watkowski
!!!END:2020-11-10
!!!ENC: Leszek Kubiak
!!!END: 2022-01-03
